X: 21821
T: THE FOREST WHERE THE DEER RESORT -- Strathspey
R: strathspey
B: K\"ohler's Violin Repository, v.1, 1885 p.182 #1
F: http://www.archive.org/details/klersviolinrepos02rugg
Z: 2012 John Chambers <jc:trillian.mit.edu>
M: C|
L: 1/8
K: Dm
uc!segno!|\
A>d~"^#"d>f (c>f)(A>a) | g>ec<A G/G/G A2 |\
[1 A>dd>f (c>f)(A>f) | B>G G/G/G (F>D) D :|\
[2 {fg}(.a>.g) (f>d) (c>B)(A>d) | (B>G) G/G/G (F>D) D2 |]
|:\
D<G(G>B) (c>B)A<c | B<G(G>B) (c>A)F<A |\
[1  D<G(G>B) (c>B)A<d | (B>G) G/G/G (F>D)D2 :|\
[2 (A>d) d/d/d (c>A) A/A/A | (B>G) G/G/G "^Segue Reel."(F>D) D "^D.C."|]

%%sep 2 1 500

